X:43
T:Lift Every Voice and Sing/Amazing Grace
L:1/8
M:6/8
V:S clef=treble
%%MIDI program 1 52 % Voice Aahs
%%MIDI program 2 42 % Cello
K:G
[V:S]
z3 FGA | B3 B3 | B3 Bcd | B3 A3 | G3
 GAB | c3 B3 | G3 A3 |  G3-G2 G | F3
 FGA | B3 B3 | e3 edB | c3 (B2 A) | G3
 GA^A | B3 BAG | A3-A2 G | G6 |
 G3 D3 | E3 EDB, | EDB, EDB, |  D3 D3 |
 G3 D3 | _E3 EDC | _EDC EDC | B6 | c3
 FGA | B3 B3 |  e3 edB | c3 (B2 A) | G3
 GA^A | B3 BAG | A3-A2  G | G6 |]
[V:A]
z4
D2|G4 BG | B4 A2 | G4 E2| D4
D2|G4 BG | B4 A2 | d6-  |d4
B2|d4 BG | B4 A2 | G4 E2| D4
D2|G4 BG | A4 A2 | G6-  |G4
D2|G4 BG | B4 A2 | G4 E2|D4
D2|G4 BG | B4 AB | (d6  |c3)z
B2|d4 BG | B4 A2 | G4 E2|D4
D2|G4 (3BAG|B4 A2|G6|]

